X:1
T:Title
%%score ( 1 2 ) { 3 | 4 }
L:1/8
Q:1/4=105
M:4/4
K:Db
V:1 treble nm="Grand Piano, Soprano"
V:2 treble 
V:3 treble nm="Choir Pad, Marching in His Name"
V:4 bass 
V:1
 [DF]>[EG] [FA]2 [FB]2 [Fc]2 | [Fd]2 [Fd]2 [DF]4 | [DF]>[A,E] [A,D]2 [DF]2 [FB]2 | [DF]2 [CG]6 | %4
w: By~Charles~Hutchinson~Gabriel * * * *||||
 [CE]>[DF] [EG]2 [FA]2 [GB]2 | [Gc]2 [Gc]2 [EG]4 | [CE]>[DF] [EG]2 [FA]2 [GB]2 | [Gc]2 [FA]6 | %8
w: ||||
 [DF]>[EG] [FA]2 [FB]2 [Fc]2 | [Fd]2 [Fd]2 [DF]4 | D>D [DB]2 [=DB]2 [EB]2 | z2 e6 | %12
w: ||||
 [Ec]>[Ec] [Dd]2 [Dd]2 [Dd]2 | [Dd]2 [Dd]2 [DE]4 | [Dc]>[_FB] [=FA]2 [EG]2 [DF]2 | [CE]2 D6 | %16
w: ||||
 [A,E]>[A,D] [A,C]2 [GB]2 [GB]2 | [GB]2 [GB]2 [CE]4 | [CF][CE] D2 [FA]2 [DA]2 | [EA]2 [FA]6 | %20
w: ||||
 [FB]>[Fc] [Fd]2 [Fd]2 [Fc]2 | [FB]2 [Gd]2 [Gc]4 | [CG]>[CA] [GB]2 [GB]2 [Gc]2 | %23
w: |||
 [Gc]2 [FA]4- [FA]>[DF] | [A,E]>[A,D] [A,C]2 [GB]2 [GB]2 | [GB]2 [GB]2 [CE]3 z/ [CG]/ | %26
w: |||
 [CF]>[CE] D2 [FA]2 [DA]2 | [EA]2 [FA]6 | [FB]>[Fc] [_Fd]2 [Fd]2 [Fc]2 | [_FB]2 [=Fd]2 [Fd]2 A2 | %30
w: ||||
 [FA]2 [GB]2 [=GB]2 [_Gc]2 | [Ge]2 [Fd]6- | [Fd]2 z2 z4 |] %33
w: |||
V:2
 x8 | x8 | x8 | x8 | x8 | x8 | x8 | x8 | x8 | x8 | x8 | [EB]2 E2 =G2 _G2 | x8 | x8 | x8 | x8 | x8 | %17
 x8 | x8 | x8 | x8 | x8 | x8 | x8 | x8 | x8 | x8 | x8 | x8 | x8 | x8 | x8 | x8 |] %33
V:3
 A,>A, D2 D2 D2 | A,2 A,2 A,4 | A,>G, F,2 A,2 D2 | A,2 A,6 | A,>A, A,2 A,2 A,2 | A,2 A,2 C4 | %6
 A,>A, A,2 A,2 A,2 | A,2 A,6 | A,>A,[K:treble] D2 D2 D2 | D2 A,2[K:bass] A,4 | A,>A, G,2 A,2 G,2 | %11
 =G,2 A,2 D2 C2 | A,>A, A,2 F,2 G,2 | A,2 B,2 B,4 | B,>D D2 A,2 A,2 | G,2 F,6 | G,>F, E,2 C2 C2 | %17
 C2 C2 G,4 | A,G, F,2[K:treble] D2 D2 | C2 D6 | D>D[K:bass] A,2 A,2 A,2 | A,2 A,2 A,4 | %22
 A,>A,[K:treble] C2 C2 C2 | C2 D4- D>[K:bass]A, | G,>F, E,2 C2 C2 | C2 C2 G,3 z/ B,/ | %26
 A,>G, F,2[K:treble] D2 D2 | C2 D6 | D>[K:bass]A, B,2 B,2 B,2 | B,2 A,2 A,2[K:treble] D2 | %30
 D2 D2 D2 E2 | A,2 A,6- | A,2 z2 z4 |] %33
V:4
 D,>D, D,2 D,2 D,2 | D,2 D,2 D,4 | D,>D, D,2 D,2 D,2 | D,2 E,6 | A,,>A,, A,,2 A,,2 A,,2 | %5
 A,,2 A,,2 A,,4 | A,,>A,, A,,2 A,,2 A,,2 | A,,2 D,6 | D,>D, D,2 D,2 D,2 | D,2 D,2 D,4 | %10
 F,>F, z2 F,2 E,2 | D,2 C,2 B,,2 A,,2 | [G,,G,]>[G,,G,] F,2 D,2 E,2 | F,2 G,2 G,4 | %14
 G,>=G, A,2 z2 A,,2 | A,,2 D,6 | D,>D, A,,2 A,,2 A,,2 | A,,2 A,,2 A,,4 | A,,A,, D,2 D,2 F,2 | %19
 A,2 D,6 | D,>D, D,2 D,2 D,2 | D,2 E,2 E,4 | E,>E, A,,2 A,,2 A,,2 | A,,2 D,4- D,>D, | %24
 D,>D, A,,2 A,,2 A,,2 | A,,2 A,,2 A,,3 z/ A,,/ | A,,>A,, D,2 D,2 F,2 | A,2 D,6 | %28
 D,>D, [=G,,=G,]2 [G,,G,]2 [G,,G,]2 | [=G,,=G,]2 A,,2 z2 F,2 | D,2 G,2 E,2 A,2 | A,,2 D,6- | %32
 D,2 z2 z4 |] %33

